X: 21323
T: Kenny Macdonald's
R: jig
M: 6/8
K: Dmajor
d2B AAA|dBB B2A|dBB BAA|fdd eAe|
d2B AAA|dBB B2A|f2e edf|edd d3:|
f2a fde|fdB B2A|dBB BAA|fdd eAe|
f2a fde|fdB B2A|f2e edf|edd d3:|
AAA d2A|Bdd B2A|faa f2e|fdd eff|
AAA d2A|Bdd B2A|f2e edf|edd d3:|
a2f fed|efe edd|e2d eff|fed BAA|
[1 a2f fed|efe edd|f2e edf|edd d3:|
[2 A2B Bdd|e2d eff|f2e edf|edd d3||

